X:1
T:James Gibb editions
T:Gently, Lord, O gently lead us - Barnby
%%score [ ( 1 2 ) ( 3 4 ) ]
L:1/8
Q:1/4=80
M:4/4
K:D
V:1 treble nm="Midi_74"
V:2 treble 
V:3 bass nm="Midi_74"
V:4 bass 
V:1
"^Gently, Lord, O gently lead us""^Joseph Barnby\n(1838-96)""^87. 87""^Thomas Hastings\n(1784-1872)" A2 F2 F2 A2 | %1
 A2 GF G2 B2 || A2 G2 F2 F2 | (3F^GA G2 F4 ||[M:4/4] E2 F2 G2 B2 | A2 Bc c2!p! !fermata!d2 || %6
!<(! E2 F2 G2!<)! B2 | E3 F D4 || G4 F4 |] %9
V:2
 F2 D2 D2 F2 | F2 E-^D E2 G2 || F2 E2 D2 D2 | C2 ^E2 F4 ||[M:4/4] B,2 ^D2 E2 E2 | E2 E2 E2 D2 || %6
 D2 D2 D2 B,2 | C2 C2 D4 || D4 D4 |] %9
V:3
!mf! F,2 A,2 D2 C2 | B,2 B,2 E2 !courtesy!=D2 || C2 A,2 A,2 ^G,2 | A,2 B,2 A,4 || %4
[M:4/4]"^cresc." B,2 B,2 B,2 G,2 | %5
"^1 Gently, Lord, O gently lead us\nPilgrims in this vale of tears,\nThro' the changes yet decreed us,\nTill our last great change appears.\nWhen temptation's darts assail us,\nWhen in devious paths we stray,\nLet Thy goodness never fail us,\nLead us in Thy perfect way.\n\n2 In the hour of pain and anguish,\nIn the hour when death draws near,\nSuffer not our hearts to languish,\nSuffer not our souls to fear.\nAnd, when mortal life is ended,\nBid us in Thy bosom rest,\nTill, by angel-bands attended,\nWe awake among the blest." A,2 G,2 G,2 F,2 || %6
!p! B,2 B,2 B,2 E,2 | G,2 G,2 F,4 || B,4 A,4 |] %9
V:4
 D,2 D,2 D,2 D,2 | D,2 D,2 D,2 D,2 || A,,2 C,2 D,2 B,,2 | C,2 C,2 F,4 || %4
[M:4/4] G,2 F,2 E,2 !courtesy!=D,2 | C,2 A,,2 ^A,,2 !fermata!B,,2 || G,2 F,2 E,2 G,,2 | %7
 A,,2 A,,2 D,4 || G,,4 D,4 |] %9

